X:1
T:canzonetta
M:none % had to do that to stop error messages on the last note
L:1/4
Q:1/2=120
K:F Dorian
V:1 z4        | z4     | f2        e c|_d    d     c c |                           \
    c A    B2 | c A A A| c3          B| G2        HG z::                           \
    e4        | f_d e c| B2        c2 | z    A     G F |=EF G2          |[1 F2 z2:|\
                                                                         [2 F8   |]
V:2 c2     BG | A A G c|(F/G/A/B/) c=A| B2         A A |                           \
    A A    G2 | A F F F| A3          F|=E2        HE z::                           \
    c4        | A B G A| G2        A A| GF        =E F |(G F3/=E//D// E)|[1 F2 z2:|\
                                                                         [2 F8   |]
V:3 z4        | f2  e c|_d   d     c f|(B/c/_d/e/) f f |                           \
   (a g/f/ e2)| A_d d d| A3          B| c2        Hc z::                           \
    A4        |_d B c>d| e2        A F|=E    F     c_d | c4             |[1 F2 z2:|\
                                                                         [2 F8   |]
